X:1
T:Title
%%score { ( 1 3 ) | ( 2 4 ) }
L:1/8
M:4/4
K:Bb
V:1 treble nm="Grand Piano"
V:3 treble 
V:2 bass 
V:4 bass 
V:1
 z4 z2[Q:1/4=108] [DF]2 | [DB]2 [DF]2 [B,D]2 [CE]2 | [DF]3 [EG] [DF]2 [DB]2 | A2 B2 c2 A2 | %4
[M:3/4] [DB]6 |[M:1/4] [DF]2 |[M:4/4] [DB]2 [DF]2 [B,D]2 [CE]2 | [DF]3 [EG] [DF]2 [DFB]2 | %8
 A2 F2 G2 A2 | [DB]6 z2 | [Fd]2 [DB]2 [Fd]2 [DB]2 | c4 z4 | c2 A2 c2 A2 | %13
[M:3/4] [DB]4[K:bass][K:treble] z2 |[M:1/4] [DB]2 |[M:4/4] [Fd]3 [DB] [DB]2 [DF]2 | %16
[M:9/8] [EG]2 [GB]- [GB] [GB]2- [GB] G2 |[M:4/4] F2 d2 c3 [DB] |[M:3/4] [DB]6 |] %19
V:2
 z4 z2 [B,,B,]2 | [B,,F,]2 [B,,B,]2 [B,,F,]2 [B,,F,]2 | [B,,B,]3 [B,,B,] [B,,B,]2 [B,,B,]2 | %3
 [F,CE]2 [F,B,D]2 [F,A,F]2 [F,E]2 |[M:3/4] [B,,F,]6 |[M:1/4] [B,,B,]2 | %6
[M:4/4] [B,,F,]2 [B,,B,]2 [B,,F,]2 [B,,F,]2 | [B,,B,]3 [B,,B,] [B,,B,]2 B,,2 | %8
 [F,CE]2 [F,A,E]2 [F,B,E]2 [F,CE]2 | [B,,B,]6 z2 | [B,,B,]2 [B,,F,]2 [B,,B,]2 [B,,F,]2 | %11
 .[F,F]2 z2 z4 | [F,A,E]2 [F,CE]2 [F,A,E]2 [F,CE]2 |[M:3/4] [B,,B,]B,, B,,[B,,F,] [B,,F,]2 | %14
[M:1/4] [B,,F,]2 |[M:4/4] [B,,B,]3 [B,,B,] [B,,B,]2 [B,,B,]2 | %16
[M:9/8] [E,B,]2 [E,E]- [E,E] [E,E]2- [E,E] [=E,B,_D]2 |[M:4/4] [F,B,D]2 [F,B,F]2 [F,A,E]3 [B,,B,] | %18
[M:3/4] [B,,B,]6 |] %19
V:3
 x8 | x8 | x8 | x8 |[M:3/4] x6 |[M:1/4] x2 |[M:4/4] x8 | x8 | x8 | x8 | x8 | z FFd c4 | x8 | %13
[M:3/4] z[K:bass] F, F,[K:treble][Ec] [DB]2 |[M:1/4] x2 |[M:4/4] x8 |[M:9/8] x9 |[M:4/4] x8 | %18
[M:3/4] x6 |] %19
V:4
 x8 | x8 | x8 | x8 |[M:3/4] x6 |[M:1/4] x2 |[M:4/4] x8 | x8 | x8 | x8 | x8 | %11
 A,-[F,A,-][F,A,][F,B,F] [F,A,F]4 | x8 |[M:3/4] x6 |[M:1/4] x2 |[M:4/4] x8 |[M:9/8] x9 | %17
[M:4/4] x8 |[M:3/4] x6 |] %19

